TileServer und Tiles/svg/9/106_22.svg

<?xml version='1.0' encoding='UTF-8' standalone='no'?>
<svg xmlns="http://www.w3.org/2000/svg" width="497pt" viewBox="0 0 497 279" xmlns:xlink="http://www.w3.org/1999/xlink" height="279pt">
 <defs style="stroke:none;" overflow="visible">
  <path id="glyph0-8" d="M 2.421875 0.09375 C 1.796875 0.09375 1.316406 -0.0820312 0.984375 -0.4375 C 0.648438 -0.800781 0.484375 -1.296875 0.484375 -1.921875 C 0.484375 -2.347656 0.539062 -2.769531 0.65625 -3.1875 C 0.78125 -3.601562 0.957031 -3.984375 1.1875 -4.328125 C 1.425781 -4.671875 1.710938 -4.941406 2.046875 -5.140625 C 2.378906 -5.347656 2.75 -5.453125 3.15625 -5.453125 C 3.664062 -5.453125 4.046875 -5.34375 4.296875 -5.125 C 4.554688 -4.90625 4.6875 -4.597656 4.6875 -4.203125 C 4.6875 -3.859375 4.578125 -3.539062 4.359375 -3.25 C 4.148438 -2.96875 3.8125 -2.738281 3.34375 -2.5625 C 2.882812 -2.394531 2.289062 -2.3125 1.5625 -2.3125 L 1.390625 -2.3125 C 1.378906 -2.257812 1.375 -2.195312 1.375 -2.125 C 1.375 -2.0625 1.375 -2.003906 1.375 -1.953125 C 1.375 -1.546875 1.472656 -1.222656 1.671875 -0.984375 C 1.867188 -0.742188 2.171875 -0.625 2.578125 -0.625 C 2.828125 -0.625 3.066406 -0.660156 3.296875 -0.734375 C 3.523438 -0.804688 3.773438 -0.910156 4.046875 -1.046875 L 4.046875 -0.296875 C 3.785156 -0.179688 3.535156 -0.0859375 3.296875 -0.015625 C 3.054688 0.0546875 2.765625 0.09375 2.421875 0.09375 Z M 1.515625 -3.03125 L 1.59375 -3.03125 C 1.988281 -3.03125 2.351562 -3.0625 2.6875 -3.125 C 3.03125 -3.195312 3.304688 -3.316406 3.515625 -3.484375 C 3.722656 -3.648438 3.828125 -3.867188 3.828125 -4.140625 C 3.828125 -4.316406 3.769531 -4.457031 3.65625 -4.5625 C 3.539062 -4.675781 3.359375 -4.734375 3.109375 -4.734375 C 2.785156 -4.734375 2.472656 -4.582031 2.171875 -4.28125 C 1.878906 -3.988281 1.660156 -3.570312 1.515625 -3.03125 Z M 1.515625 -3.03125 "/>
  <path id="glyph0-7" d="M 0.234375 0 L 1.390625 -5.390625 L 2.171875 -5.390625 L 2.0625 -4.40625 C 2.195312 -4.570312 2.347656 -4.738281 2.515625 -4.90625 C 2.679688 -5.070312 2.878906 -5.207031 3.109375 -5.3125 C 3.335938 -5.425781 3.59375 -5.484375 3.875 -5.484375 C 4.3125 -5.484375 4.648438 -5.363281 4.890625 -5.125 C 5.140625 -4.894531 5.265625 -4.566406 5.265625 -4.140625 C 5.265625 -3.984375 5.25 -3.828125 5.21875 -3.671875 C 5.195312 -3.515625 5.175781 -3.375 5.15625 -3.25 L 4.4375 0 L 3.5 0 L 4.21875 -3.375 C 4.25 -3.519531 4.269531 -3.644531 4.28125 -3.75 C 4.300781 -3.851562 4.3125 -3.953125 4.3125 -4.046875 C 4.3125 -4.472656 4.085938 -4.6875 3.640625 -4.6875 C 3.421875 -4.6875 3.179688 -4.609375 2.921875 -4.453125 C 2.671875 -4.304688 2.429688 -4.054688 2.203125 -3.703125 C 1.984375 -3.359375 1.8125 -2.894531 1.6875 -2.3125 L 1.1875 0 Z M 0.234375 0 "/>
  <path id="glyph0-6" d="M -0.25 2.40625 C -0.40625 2.40625 -0.535156 2.394531 -0.640625 2.375 C -0.742188 2.351562 -0.84375 2.328125 -0.9375 2.296875 L -0.9375 1.59375 C -0.84375 1.613281 -0.742188 1.632812 -0.640625 1.65625 C -0.535156 1.675781 -0.421875 1.6875 -0.296875 1.6875 C -0.0234375 1.6875 0.203125 1.601562 0.390625 1.4375 C 0.585938 1.269531 0.769531 1.023438 0.9375 0.703125 L 1.296875 0.078125 L 0.484375 -5.359375 L 1.359375 -5.359375 L 1.703125 -2.703125 C 1.742188 -2.492188 1.769531 -2.257812 1.78125 -2 C 1.800781 -1.75 1.816406 -1.507812 1.828125 -1.28125 C 1.835938 -1.050781 1.84375 -0.863281 1.84375 -0.71875 L 1.875 -0.71875 C 1.914062 -0.820312 1.976562 -0.976562 2.0625 -1.1875 C 2.15625 -1.40625 2.253906 -1.628906 2.359375 -1.859375 C 2.472656 -2.085938 2.570312 -2.273438 2.65625 -2.421875 L 4.203125 -5.359375 L 5.15625 -5.359375 L 1.75 0.90625 C 1.476562 1.40625 1.191406 1.78125 0.890625 2.03125 C 0.597656 2.28125 0.21875 2.40625 -0.25 2.40625 Z M -0.25 2.40625 "/>
  <path id="glyph0-5" d="M 0.40625 0 L 1.921875 -7.140625 L 3.53125 -7.140625 C 4.300781 -7.140625 4.847656 -6.96875 5.171875 -6.625 C 5.503906 -6.28125 5.671875 -5.832031 5.671875 -5.28125 C 5.671875 -4.46875 5.398438 -3.847656 4.859375 -3.421875 C 4.328125 -3.003906 3.550781 -2.796875 2.53125 -2.796875 L 1.890625 -2.796875 L 1.296875 0 Z M 2.046875 -3.546875 L 2.671875 -3.546875 C 3.304688 -3.546875 3.8125 -3.679688 4.1875 -3.953125 C 4.570312 -4.234375 4.765625 -4.664062 4.765625 -5.25 C 4.765625 -5.644531 4.648438 -5.929688 4.421875 -6.109375 C 4.203125 -6.285156 3.863281 -6.375 3.40625 -6.375 L 2.65625 -6.375 Z M 2.046875 -3.546875 "/>
  <path id="glyph0-4" d=""/>
  <path id="glyph0-3" d="M 2.46875 0.09375 C 1.875 0.09375 1.394531 -0.0703125 1.03125 -0.40625 C 0.664062 -0.738281 0.484375 -1.238281 0.484375 -1.90625 C 0.484375 -2.382812 0.546875 -2.835938 0.671875 -3.265625 C 0.804688 -3.691406 0.992188 -4.066406 1.234375 -4.390625 C 1.472656 -4.722656 1.765625 -4.984375 2.109375 -5.171875 C 2.460938 -5.359375 2.851562 -5.453125 3.28125 -5.453125 C 3.507812 -5.453125 3.738281 -5.425781 3.96875 -5.375 C 4.207031 -5.332031 4.421875 -5.273438 4.609375 -5.203125 L 4.359375 -4.46875 C 4.222656 -4.53125 4.0625 -4.585938 3.875 -4.640625 C 3.695312 -4.691406 3.503906 -4.71875 3.296875 -4.71875 C 2.910156 -4.71875 2.570312 -4.585938 2.28125 -4.328125 C 2 -4.078125 1.773438 -3.738281 1.609375 -3.3125 C 1.453125 -2.882812 1.375 -2.414062 1.375 -1.90625 C 1.375 -1.5 1.476562 -1.179688 1.6875 -0.953125 C 1.90625 -0.734375 2.195312 -0.625 2.5625 -0.625 C 2.789062 -0.625 3.007812 -0.65625 3.21875 -0.71875 C 3.4375 -0.789062 3.644531 -0.867188 3.84375 -0.953125 L 3.84375 -0.21875 C 3.65625 -0.125 3.445312 -0.0507812 3.21875 0 C 2.988281 0.0625 2.738281 0.09375 2.46875 0.09375 Z M 2.46875 0.09375 "/>
  <path id="glyph0-2" d="M 1.9375 0.09375 C 1.507812 0.09375 1.160156 -0.0546875 0.890625 -0.359375 C 0.617188 -0.671875 0.484375 -1.128906 0.484375 -1.734375 C 0.484375 -2.234375 0.546875 -2.707031 0.671875 -3.15625 C 0.804688 -3.601562 0.988281 -4 1.21875 -4.34375 C 1.445312 -4.6875 1.722656 -4.957031 2.046875 -5.15625 C 2.367188 -5.351562 2.722656 -5.453125 3.109375 -5.453125 C 3.460938 -5.453125 3.75 -5.359375 3.96875 -5.171875 C 4.1875 -4.992188 4.347656 -4.78125 4.453125 -4.53125 L 4.515625 -4.53125 L 4.828125 -5.359375 L 5.5 -5.359375 L 4.359375 0 L 3.65625 0 L 3.796875 -0.984375 L 3.75 -0.984375 C 3.519531 -0.691406 3.25 -0.4375 2.9375 -0.21875 C 2.632812 -0.0078125 2.300781 0.09375 1.9375 0.09375 Z M 2.21875 -0.625 C 2.46875 -0.625 2.707031 -0.710938 2.9375 -0.890625 C 3.175781 -1.078125 3.390625 -1.320312 3.578125 -1.625 C 3.773438 -1.9375 3.925781 -2.28125 4.03125 -2.65625 C 4.082031 -2.851562 4.113281 -3.03125 4.125 -3.1875 C 4.144531 -3.351562 4.15625 -3.507812 4.15625 -3.65625 C 4.15625 -3.96875 4.066406 -4.222656 3.890625 -4.421875 C 3.722656 -4.617188 3.492188 -4.71875 3.203125 -4.71875 C 2.941406 -4.71875 2.703125 -4.632812 2.484375 -4.46875 C 2.265625 -4.3125 2.070312 -4.085938 1.90625 -3.796875 C 1.738281 -3.515625 1.609375 -3.191406 1.515625 -2.828125 C 1.421875 -2.472656 1.375 -2.097656 1.375 -1.703125 C 1.375 -1.347656 1.445312 -1.078125 1.59375 -0.890625 C 1.738281 -0.710938 1.945312 -0.625 2.21875 -0.625 Z M 2.21875 -0.625 "/>
  <path id="glyph0-1" d="M 0.40625 0 L 1.921875 -7.140625 L 2.8125 -7.140625 L 1.453125 -0.796875 L 4.203125 -0.796875 L 4.03125 0 Z M 0.40625 0 "/>
  <path id="glyph0-0" d="M 0.9375 0 L 0.9375 -7.140625 L 5.046875 -7.140625 L 5.046875 0 Z M 1.453125 -0.515625 L 4.546875 -0.515625 L 4.546875 -6.625 L 1.453125 -6.625 Z M 1.453125 -0.515625 "/>
 </defs>
 <image width="497" xlink:href="svg/9/106_22.jpg" height="279"/>
 <g>
  <path d="M 284.792969 41.519531 L 286.308594 34.378906 L 287.199219 34.378906 L 285.839844 40.722656 L 288.589844 40.722656 L 288.417969 41.519531 Z M 284.792969 41.519531 " transform=" rotate(  340 306.476 38.5177) " style="fill:none;stroke-width:2;stroke-linecap:butt;stroke-linejoin:round;stroke:rgb(100%,100%,100%);stroke-opacity:0.6;stroke-miterlimit:10;"/>
  <path d="M 291.101562 41.613281 C 290.671875 41.613281 290.324219 41.464844 290.054688 41.160156 C 289.78125 40.847656 289.648438 40.390625 289.648438 39.785156 C 289.648438 39.285156 289.710938 38.8125 289.835938 38.363281 C 289.96875 37.917969 290.152344 37.519531 290.382812 37.175781 C 290.609375 36.832031 290.886719 36.5625 291.210938 36.363281 C 291.53125 36.167969 291.886719 36.066406 292.273438 36.066406 C 292.625 36.066406 292.914062 36.160156 293.132812 36.347656 C 293.351562 36.527344 293.511719 36.738281 293.617188 36.988281 L 293.679688 36.988281 L 293.992188 36.160156 L 294.664062 36.160156 L 293.523438 41.519531 L 292.820312 41.519531 L 292.960938 40.535156 L 292.914062 40.535156 C 292.683594 40.828125 292.414062 41.082031 292.101562 41.300781 C 291.796875 41.511719 291.464844 41.613281 291.101562 41.613281 Z M 291.382812 40.894531 C 291.632812 40.894531 291.871094 40.808594 292.101562 40.628906 C 292.339844 40.441406 292.554688 40.199219 292.742188 39.894531 C 292.9375 39.582031 293.089844 39.238281 293.195312 38.863281 C 293.246094 38.667969 293.277344 38.488281 293.289062 38.332031 C 293.308594 38.167969 293.320312 38.011719 293.320312 37.863281 C 293.320312 37.550781 293.230469 37.296875 293.054688 37.097656 C 292.886719 36.902344 292.65625 36.800781 292.367188 36.800781 C 292.105469 36.800781 291.867188 36.886719 291.648438 37.050781 C 291.429688 37.207031 291.234375 37.433594 291.070312 37.722656 C 290.902344 38.003906 290.773438 38.328125 290.679688 38.691406 C 290.585938 39.046875 290.539062 39.421875 290.539062 39.816406 C 290.539062 40.171875 290.609375 40.441406 290.757812 40.628906 C 290.902344 40.808594 291.109375 40.894531 291.382812 40.894531 Z M 291.382812 40.894531 " transform=" rotate(  340 306.476 38.5177) " style="fill:none;stroke-width:2;stroke-linecap:butt;stroke-linejoin:round;stroke:rgb(100%,100%,100%);stroke-opacity:0.6;stroke-miterlimit:10;"/>
  <path d="M 297.3125 41.613281 C 296.71875 41.613281 296.238281 41.449219 295.875 41.113281 C 295.507812 40.78125 295.328125 40.28125 295.328125 39.613281 C 295.328125 39.136719 295.390625 38.683594 295.515625 38.253906 C 295.648438 37.828125 295.835938 37.453125 296.078125 37.128906 C 296.316406 36.796875 296.609375 36.535156 296.953125 36.347656 C 297.304688 36.160156 297.695312 36.066406 298.125 36.066406 C 298.351562 36.066406 298.582031 36.09375 298.8125 36.144531 C 299.050781 36.1875 299.265625 36.246094 299.453125 36.316406 L 299.203125 37.050781 C 299.066406 36.988281 298.90625 36.933594 298.71875 36.878906 C 298.539062 36.828125 298.347656 36.800781 298.140625 36.800781 C 297.753906 36.800781 297.414062 36.933594 297.125 37.191406 C 296.84375 37.441406 296.617188 37.78125 296.453125 38.207031 C 296.296875 38.636719 296.21875 39.105469 296.21875 39.613281 C 296.21875 40.019531 296.320312 40.339844 296.53125 40.566406 C 296.75 40.785156 297.039062 40.894531 297.40625 40.894531 C 297.632812 40.894531 297.851562 40.863281 298.0625 40.800781 C 298.28125 40.730469 298.488281 40.652344 298.6875 40.566406 L 298.6875 41.300781 C 298.5 41.394531 298.289062 41.46875 298.0625 41.519531 C 297.832031 41.582031 297.582031 41.613281 297.3125 41.613281 Z M 297.3125 41.613281 " transform=" rotate(  340 306.476 38.5177) " style="fill:none;stroke-width:2;stroke-linecap:butt;stroke-linejoin:round;stroke:rgb(100%,100%,100%);stroke-opacity:0.6;stroke-miterlimit:10;"/>
  <path d="M 302.382812 41.519531 L 303.898438 34.378906 L 305.507812 34.378906 C 306.277344 34.378906 306.824219 34.550781 307.148438 34.894531 C 307.480469 35.238281 307.648438 35.6875 307.648438 36.238281 C 307.648438 37.050781 307.375 37.671875 306.835938 38.097656 C 306.304688 38.515625 305.527344 38.722656 304.507812 38.722656 L 303.867188 38.722656 L 303.273438 41.519531 Z M 304.023438 37.972656 L 304.648438 37.972656 C 305.28125 37.972656 305.789062 37.839844 306.164062 37.566406 C 306.546875 37.285156 306.742188 36.855469 306.742188 36.269531 C 306.742188 35.875 306.625 35.589844 306.398438 35.410156 C 306.179688 35.234375 305.839844 35.144531 305.382812 35.144531 L 304.632812 35.144531 Z M 304.023438 37.972656 " transform=" rotate(  340 306.476 38.5177) " style="fill:none;stroke-width:2;stroke-linecap:butt;stroke-linejoin:round;stroke:rgb(100%,100%,100%);stroke-opacity:0.6;stroke-miterlimit:10;"/>
  <path d="M 309.582031 41.613281 C 309.152344 41.613281 308.804688 41.464844 308.535156 41.160156 C 308.261719 40.847656 308.128906 40.390625 308.128906 39.785156 C 308.128906 39.285156 308.191406 38.8125 308.316406 38.363281 C 308.449219 37.917969 308.632812 37.519531 308.863281 37.175781 C 309.089844 36.832031 309.367188 36.5625 309.691406 36.363281 C 310.011719 36.167969 310.367188 36.066406 310.753906 36.066406 C 311.105469 36.066406 311.394531 36.160156 311.613281 36.347656 C 311.832031 36.527344 311.992188 36.738281 312.097656 36.988281 L 312.160156 36.988281 L 312.472656 36.160156 L 313.144531 36.160156 L 312.003906 41.519531 L 311.300781 41.519531 L 311.441406 40.535156 L 311.394531 40.535156 C 311.164062 40.828125 310.894531 41.082031 310.582031 41.300781 C 310.277344 41.511719 309.945312 41.613281 309.582031 41.613281 Z M 309.863281 40.894531 C 310.113281 40.894531 310.351562 40.808594 310.582031 40.628906 C 310.820312 40.441406 311.035156 40.199219 311.222656 39.894531 C 311.417969 39.582031 311.570312 39.238281 311.675781 38.863281 C 311.726562 38.667969 311.757812 38.488281 311.769531 38.332031 C 311.789062 38.167969 311.800781 38.011719 311.800781 37.863281 C 311.800781 37.550781 311.710938 37.296875 311.535156 37.097656 C 311.367188 36.902344 311.136719 36.800781 310.847656 36.800781 C 310.585938 36.800781 310.347656 36.886719 310.128906 37.050781 C 309.910156 37.207031 309.714844 37.433594 309.550781 37.722656 C 309.382812 38.003906 309.253906 38.328125 309.160156 38.691406 C 309.066406 39.046875 309.019531 39.421875 309.019531 39.816406 C 309.019531 40.171875 309.089844 40.441406 309.238281 40.628906 C 309.382812 40.808594 309.589844 40.894531 309.863281 40.894531 Z M 309.863281 40.894531 " transform=" rotate(  340 306.476 38.5177) " style="fill:none;stroke-width:2;stroke-linecap:butt;stroke-linejoin:round;stroke:rgb(100%,100%,100%);stroke-opacity:0.6;stroke-miterlimit:10;"/>
  <path d="M 313.074219 43.925781 C 312.917969 43.925781 312.789062 43.914062 312.683594 43.894531 C 312.582031 43.871094 312.480469 43.847656 312.386719 43.816406 L 312.386719 43.113281 C 312.480469 43.132812 312.582031 43.152344 312.683594 43.175781 C 312.789062 43.195312 312.902344 43.207031 313.027344 43.207031 C 313.300781 43.207031 313.527344 43.121094 313.714844 42.957031 C 313.910156 42.789062 314.09375 42.542969 314.261719 42.222656 L 314.621094 41.597656 L 313.808594 36.160156 L 314.683594 36.160156 L 315.027344 38.816406 C 315.066406 39.027344 315.09375 39.261719 315.105469 39.519531 C 315.125 39.769531 315.140625 40.011719 315.152344 40.238281 C 315.160156 40.46875 315.167969 40.65625 315.167969 40.800781 L 315.199219 40.800781 C 315.238281 40.699219 315.300781 40.542969 315.386719 40.332031 C 315.480469 40.113281 315.578125 39.890625 315.683594 39.660156 C 315.796875 39.433594 315.894531 39.246094 315.980469 39.097656 L 317.527344 36.160156 L 318.480469 36.160156 L 315.074219 42.425781 C 314.800781 42.925781 314.515625 43.300781 314.214844 43.550781 C 313.921875 43.800781 313.542969 43.925781 313.074219 43.925781 Z M 313.074219 43.925781 " transform=" rotate(  340 306.476 38.5177) " style="fill:none;stroke-width:2;stroke-linecap:butt;stroke-linejoin:round;stroke:rgb(100%,100%,100%);stroke-opacity:0.6;stroke-miterlimit:10;"/>
  <path d="M 318.230469 41.519531 L 319.386719 36.128906 L 320.167969 36.128906 L 320.058594 37.113281 C 320.191406 36.949219 320.34375 36.78125 320.511719 36.613281 C 320.675781 36.449219 320.875 36.3125 321.105469 36.207031 C 321.332031 36.09375 321.589844 36.035156 321.871094 36.035156 C 322.308594 36.035156 322.644531 36.15625 322.886719 36.394531 C 323.136719 36.625 323.261719 36.953125 323.261719 37.378906 C 323.261719 37.535156 323.246094 37.691406 323.214844 37.847656 C 323.191406 38.003906 323.171875 38.144531 323.152344 38.269531 L 322.433594 41.519531 L 321.496094 41.519531 L 322.214844 38.144531 C 322.246094 38 322.265625 37.875 322.277344 37.769531 C 322.296875 37.667969 322.308594 37.566406 322.308594 37.472656 C 322.308594 37.046875 322.082031 36.832031 321.636719 36.832031 C 321.417969 36.832031 321.175781 36.910156 320.917969 37.066406 C 320.667969 37.214844 320.425781 37.464844 320.199219 37.816406 C 319.980469 38.160156 319.808594 38.625 319.683594 39.207031 L 319.183594 41.519531 Z M 318.230469 41.519531 " transform=" rotate(  340 306.476 38.5177) " style="fill:none;stroke-width:2;stroke-linecap:butt;stroke-linejoin:round;stroke:rgb(100%,100%,100%);stroke-opacity:0.6;stroke-miterlimit:10;"/>
  <path d="M 326.207031 41.613281 C 325.582031 41.613281 325.101562 41.4375 324.769531 41.082031 C 324.433594 40.71875 324.269531 40.222656 324.269531 39.597656 C 324.269531 39.171875 324.324219 38.75 324.441406 38.332031 C 324.566406 37.917969 324.742188 37.535156 324.972656 37.191406 C 325.210938 36.847656 325.496094 36.578125 325.832031 36.378906 C 326.164062 36.171875 326.535156 36.066406 326.941406 36.066406 C 327.449219 36.066406 327.832031 36.175781 328.082031 36.394531 C 328.339844 36.613281 328.472656 36.921875 328.472656 37.316406 C 328.472656 37.660156 328.363281 37.980469 328.144531 38.269531 C 327.933594 38.550781 327.597656 38.78125 327.128906 38.957031 C 326.667969 39.125 326.074219 39.207031 325.347656 39.207031 L 325.175781 39.207031 C 325.164062 39.261719 325.160156 39.324219 325.160156 39.394531 C 325.160156 39.457031 325.160156 39.515625 325.160156 39.566406 C 325.160156 39.972656 325.257812 40.296875 325.457031 40.535156 C 325.652344 40.777344 325.957031 40.894531 326.363281 40.894531 C 326.613281 40.894531 326.851562 40.859375 327.082031 40.785156 C 327.308594 40.714844 327.558594 40.609375 327.832031 40.472656 L 327.832031 41.222656 C 327.570312 41.339844 327.320312 41.433594 327.082031 41.503906 C 326.839844 41.574219 326.550781 41.613281 326.207031 41.613281 Z M 325.300781 38.488281 L 325.378906 38.488281 C 325.773438 38.488281 326.136719 38.457031 326.472656 38.394531 C 326.816406 38.324219 327.089844 38.203125 327.300781 38.035156 C 327.507812 37.871094 327.613281 37.652344 327.613281 37.378906 C 327.613281 37.203125 327.554688 37.0625 327.441406 36.957031 C 327.324219 36.84375 327.144531 36.785156 326.894531 36.785156 C 326.570312 36.785156 326.257812 36.9375 325.957031 37.238281 C 325.664062 37.53125 325.445312 37.949219 325.300781 38.488281 Z M 325.300781 38.488281 " transform=" rotate(  340 306.476 38.5177) " style="fill:none;stroke-width:2;stroke-linecap:butt;stroke-linejoin:round;stroke:rgb(100%,100%,100%);stroke-opacity:0.6;stroke-miterlimit:10;"/>
  <g transform=" rotate(  340 306.476 38.5177) " style="fill:rgb(30.196078%,50.196078%,70.196078%);fill-opacity:1;">
   <use xlink:href="#glyph0-1" y="41.517718" x="284.385669"/>
   <use xlink:href="#glyph0-2" y="41.517718" x="289.165669"/>
   <use xlink:href="#glyph0-3" y="41.517718" x="294.845669"/>
   <use xlink:href="#glyph0-4" y="41.517718" x="299.375669"/>
   <use xlink:href="#glyph0-5" y="41.517718" x="301.975669"/>
   <use xlink:href="#glyph0-2" y="41.517718" x="307.645669"/>
   <use xlink:href="#glyph0-6" y="41.517718" x="313.325669"/>
   <use xlink:href="#glyph0-7" y="41.517718" x="317.995669"/>
   <use xlink:href="#glyph0-8" y="41.517718" x="323.785669"/>
  </g>
 </g>
</svg>

<svg xmlns="http://www.w3.org/2000/svg" xmlns:xlink="http://www.w3.org/1999/xlink" viewBox="0 0 497 279"> <defs overflow="visible" style="stroke:none">  <path id="g" d="M2.4 0c-.6 0-1 0-1.4-.3C.6-.8.5-1.3.5-2c0-.3 0-.8.2-1.2 0-.4.3-.8.5-1.1.2-.4.5-.7.8-.8a2 2 0 0 1 1.2-.4c.5 0 .8.2 1.1.5.3 0 .4.4.4.8 0 .3-.1.7-.3 1-.4.2-.6.4-1 .6-.6.2-1.2.3-1.9.3h-.1v.3c0 .5 0 .8.3 1 .2.3.5.4.9.4l.7-.1A5 5 0 0 0 4-1v.7a6 6 0 0 1-.7.3h-.9Zm-.9-3 1.3-.1.7-.4c.2-.1.3-.4.3-.5l-.1-.6-.7-.1c-.2 0-.5.1-.9.4L1.6-3Zm0 0"/>  <path id="f" d="m.2 0 1.2-5.4h.8l-.2 1 .5-.6a2 2 0 0 1 .6-.3l.9-.2c.3 0 .6.1.9.5.1 0 .4.4.4.9v.4l-.2.5L4.4 0h-.9l.7-3.4v-.4l.2-.2c-.1-.5-.3-.7-.8-.7-.2 0-.4 0-.6.2-.3.2-.6.5-.8.8-.2.3-.4.8-.5 1.4L1.2 0Zm0 0"/>  <path id="e" d="M-.3 2.4h-.3l-.4-.1v-.7h.7c.3.1.5.1.7-.1.2-.2.4-.5.5-.8l.4-.6-.8-5.5h.9l.3 2.7v.7l.2.7v.6A28.4 28.4 0 0 1 2.5-2c-.1 0 .1-.3.2-.4l1.5-3h1L1.7 1c-.1.4-.4.8-.7 1-.4.3-.8.4-1.2.4Zm0 0"/>  <path id="d" d="M.4 0 2-7.1h1.5c.8 0 1.3.1 1.7.5.3.3.5.8.5 1.3 0 .8-.3 1.5-.8 1.9-.6.4-1.3.6-2.4.6H2L1.3 0ZM2-3.5h.7c.6 0 1.1-.2 1.5-.5.4-.2.6-.7.6-1.3 0-.2-.2-.5-.4-.7-.2-.3-.4-.4-1-.4h-.7Zm0 0"/>  <path id="c" d="M2.5 0C1.9 0 1.4 0 1-.3.7-.7.5-1.2.5-2c0-.4 0-1 .2-1.3l.5-1c.3-.5.6-.7 1-1 .2-.1.6-.2.9-.2l.9.1.6.2-.2.7-.5-.1-.6-.1c-.4 0-.7.1-1 .4-.3.2-.5.6-.7 1A4 4 0 0 0 1.4-2c0 .5 0 .8.3 1 .2.2.5.3.9.3h.6a7 7 0 0 0 .6-.3v.8l-.6.2h-.7Zm0 0"/>  <path id="b" d="M2 0c-.6 0-.9 0-1.2-.3C.6-.7.5-1 .5-1.7c0-.5 0-1 .2-1.5l.5-1.1c.2-.4.5-.7.8-.9a2 2 0 0 1 1.1-.3c.4 0 .6.1.9.3l.5.7.3-.9h.7L4.4 0h-.7l.1-1c-.3.3-.5.6-.9.8-.3.2-.6.2-.9.2Zm.1-.5c.4-.1.6-.2.9-.5l.6-.6a4 4 0 0 0 .4-1 3 3 0 0 0 .1-.7 4 4 0 0 0 0-.4c.1-.3.1-.5-.1-.7-.3-.2-.5-.3-.8-.3-.3 0-.5 0-.7.2a2 2 0 0 0-.6.7l-.4 1-.1 1.1c0 .4 0 .6.2.8.1.2.3.3.6.3Zm.1-.1"/>  <path id="a" d="M.4 0 2-7.1h1L1.4-.8h2.8L4 0Zm0 0"/>  <path d="M1 0v-7.1h4V0Zm.4-.5h3.1v-6.1h-3Zm.1 0"/> </defs> <image xlink:href="svg/9/106_22.jpg" width="497" height="279"/> <path d="m284.8 41.5 1.5-7.1h.9l-1.4 6.3h2.8l-.2.8Zm6.3.1c-.4 0-.8-.1-1-.4-.3-.4-.5-.8-.5-1.4l.2-1.4.6-1.2c.2-.4.5-.6.8-.8a2 2 0 0 1 1-.4c.5 0 .8 0 1.1.3l.2.7.5-.8h.7l-1.2 5.3h-.7l.2-1-1 .8c-.2.2-.5.3-.9.3Zm.3-.6c.2-.1.5-.1.6-.4.3-.2.6-.4.7-.6a4 4 0 0 0 .5-1.1 3 3 0 0 0 0-.6 4 4 0 0 0 .2-.3c-.1-.4-.1-.7-.3-1-.2-.1-.4-.2-.7-.2-.4 0-.5 0-.8.3a2 2 0 0 0-.5.6l-.4 1-.2 1.1c0 .4.1.6.3.8.1.2.2.4.6.4Zm5.9.6c-.6 0-1-.2-1.3-.5-.5-.3-.7-.8-.7-1.5 0-.5 0-1 .2-1.3.1-.5.3-.8.6-1.3.2-.2.5-.5.9-.7l1-.2h.8l.7.2-.3.8-.5-.2-.6-.1c-.3 0-.7.1-1 .4-.3.2-.5.6-.6 1a4 4 0 0 0-.3 1.4c0 .4.1.7.3 1 .3.2.5.3 1 .3l.5-.1a7 7 0 0 0 .7-.2v.7l-.7.2-.7.1Zm5.1-.1 1.5-7.1h1.6c.8 0 1.3.2 1.6.5.4.3.5.8.5 1.3 0 .9-.2 1.5-.8 1.9-.5.4-1.3.6-2.3.6h-.5l-.7 2.8ZM304 38h.6c.7 0 1.2-.2 1.6-.4.3-.3.5-.7.5-1.3 0-.4 0-.7-.3-.9-.2-.2-.6-.3-1-.3h-.8Zm5.6 3.6c-.4 0-.8-.1-1-.4-.4-.4-.6-.8-.6-1.4.1-.5.1-1 .3-1.4.1-.5.3-.9.7-1.2 0-.4.4-.6.7-.8a2 2 0 0 1 1-.4c.5 0 .8 0 1.1.3l.2.7.6-.8h.4l-1 5.3h-.7l.1-1-.8.8c-.3.2-.7.3-1 .3Zm.3-.6c.1-.1.5-.1.7-.4l.6-.6a4 4 0 0 0 .5-1.1 3 3 0 0 0 0-.6 4 4 0 0 0 .2-.3c-.1-.4-.1-.7-.4-1-.1-.1-.4-.2-.7-.2-.2 0-.5 0-.7.3a2 2 0 0 0-.5.6l-.4 1-.2 1.1c0 .4 0 .6.2.8.2.2.4.4.8.4Zm3.1 3-.2-.2h-.4V43h.3l.3.3c.3-.1.5-.1.7-.3l.6-.8.3-.6-.8-5.4h.9l.3 2.6.1.7v1.3h.2a28.4 28.4 0 0 1 .4-1.1l.3-.7 1.5-2.9h1l-3.5 6.4-.8 1.1c-.2.2-.7.3-1.1.3Zm5.2-2.5 1.2-5.4h.8l-.2 1c0-.1.3-.3.5-.5a2 2 0 0 1 .6-.4l.9-.2c.3 0 .6.2.9.4.1.2.4.6.4 1v.4l-.2.5-.7 3.2h-.9l.7-3.4v-.3l.2-.3c-.1-.5-.3-.7-.8-.7l-.6.3-.8.7c-.2.4-.4.8-.5 1.4l-.5 2.3Zm8 .1c-.6 0-1.1-.2-1.4-.5-.4-.4-.5-.9-.5-1.5l.1-1.3c.2-.3.3-.8.6-1.1.2-.4.5-.6.8-.8a2 2 0 0 1 1.2-.4c.4 0 1 0 1.1.4.2.2.4.5.4 1 0 .2-.1.6-.5.8 0 .4-.4.6-.9.8l-1.8.2h-.1v.4c0 .4 0 .7.3 1 .2.1.5.2.9.2h.6a5 5 0 0 0 .8-.3v.7a6 6 0 0 1-.7.3l-.9.1Zm-.9-3.1 1.3-.1c.2 0 .4-.2.7-.4.2 0 .3-.3.3-.6 0-.2 0-.4-.2-.4 0-.2-.3-.2-.4-.2-.4 0-.7.1-1.1.4-.1.3-.4.8-.5 1.3Zm0 0" style="fill:none;stroke-width:2;stroke-linecap:butt;stroke-linejoin:round;stroke:#fff;stroke-opacity:.6;stroke-miterlimit:10" transform=" rotate(  340 306.476 38.5177) "/> <g style="fill:#4d80b3;fill-opacity:1" transform=" rotate(  340 306.476 38.5177) ">  <use xlink:href="#a" x="284.4" y="41.5"/>  <use xlink:href="#b" x="289.2" y="41.5"/>  <use xlink:href="#c" x="294.8" y="41.5"/>  <use xlink:href="#glyph0-4" x="299.4" y="41.5"/>  <use xlink:href="#d" x="302" y="41.5"/>  <use xlink:href="#b" x="307.6" y="41.5"/>  <use xlink:href="#e" x="313.3" y="41.5"/>  <use xlink:href="#f" x="318" y="41.5"/>  <use xlink:href="#g" x="323.8" y="41.5"/> </g></svg>
